packages/core/src/svgs/inv.svg

<svg width="24" height="24" viewBox="0 0 24 24" fill="none" xmlns="http://www.w3.org/2000/svg">
<g clip-path="url(#clip0_31_11852)">
<path d="M0 0H24V24H0V0Z" fill="url(#paint0_linear_31_11852)"/>
<path d="M5.14307 8.36157C5.14307 7.80443 5.52878 6.81014 6.00021 6.42871V17.5716H5.14307V8.36157Z" fill="#8799E0"/>
<path d="M12.8572 6.42871H13.7144V16.693C14.8766 16.5917 15.9632 16.0743 16.7744 15.2359C17.5629 14.3787 18.0001 13.2516 18.0001 12.4287V7.28585H16.2858V12.2144C16.2858 12.7716 15.9001 13.7616 15.4286 14.143V6.42871H18.8572V12.4287C18.8572 13.5173 18.3301 14.7987 17.4172 15.7973C16.9463 16.3198 16.3767 16.744 15.7412 17.0456C15.1058 17.3471 14.4169 17.5201 13.7144 17.5544V17.5716H12.8572V7.303C11.6144 7.41443 10.5858 8.00585 9.85721 8.76871C9.04721 9.62585 8.5715 10.7487 8.5715 11.5716V16.7144H10.2858V11.7859C10.2858 11.2287 10.6715 10.2387 11.1429 9.85728V17.5716H7.71436V11.5716C7.71436 10.4787 8.25436 9.20157 9.19721 8.203C10.1572 7.19157 11.5972 6.42871 12.8572 6.42871Z" fill="#5A86E7"/>
</g>
<defs>
<linearGradient id="paint0_linear_31_11852" x1="4.46571" y1="4.16143" x2="29.2071" y2="32.58" gradientUnits="userSpaceOnUse">
<stop stop-color="#1A1E21"/>
<stop offset="1" stop-color="#06060A"/>
</linearGradient>
<clipPath id="clip0_31_11852">
<rect width="24" height="24" fill="white"/>
</clipPath>
</defs>
</svg>

<svg xmlns="http://www.w3.org/2000/svg" width="24" height="24" fill="none" viewBox="0 0 24 24"><g clip-path="url(#a)"><path fill="url(#b)" d="M0 0h24v24H0z"/><path fill="#8799E0" d="M5.143 8.362c0-.558.386-1.552.857-1.933v11.143h-.857z"/><path fill="#5A86E7" d="M12.857 6.429h.857v10.264a4.84 4.84 0 0 0 3.06-1.457c.789-.857 1.226-1.984 1.226-2.807V7.286h-1.714v4.928c0 .558-.386 1.548-.857 1.929V6.429h3.428v6c0 1.088-.527 2.37-1.44 3.368a5.34 5.34 0 0 1-3.703 1.757v.018h-.857V7.303a4.73 4.73 0 0 0-3 1.466c-.81.857-1.285 1.98-1.285 2.803v5.142h1.714v-4.928c0-.557.386-1.547.857-1.929v7.715H7.714v-6c0-1.093.54-2.37 1.483-3.369.96-1.011 2.4-1.774 3.66-1.774"/></g><defs><linearGradient id="b" x1="4.466" x2="29.207" y1="4.161" y2="32.58" gradientUnits="userSpaceOnUse"><stop stop-color="#1A1E21"/><stop offset="1" stop-color="#06060A"/></linearGradient><clipPath id="a"><path fill="#fff" d="M0 0h24v24H0z"/></clipPath></defs></svg>
